X: 36771
T: Shepherd's Daughter, The
R: reel
M: 4/4
K: Adorian
~e2ge ed (3B^cd|eA~A2 BABd|eggd edB^c|dG~G2 BG (3B^cd|
~e3g ed (3B^cd|eA~A2 ABBA|G2 (3B^cd efga|bgaf gefd||
eaaf gefd|eaag ed (3B^cd|eaaf gefd|(3efg de gd (3B^cd|
e2af g2ag|eaab =c'bag|eaaf g2fg|(3efg de gdBd||
e3g edBd|eAA2 EABd|e2ge edBe|dGG2 DGBd|
e2ge edBd|eAA2 ABBA|G2Bc dega|bgaf g4||
eaaf g3a|eaaf ged2|eaaf g2af|e2de gdBd|
eaaf g3a|eaab c'bag|eaaf g2ag|e2de gdBd||
(3efe eg edBd|eA (3AAA EABd|e2ge {f}edBe|dG (3GGG DGBd|
e2ge {f}edBd|eA (3AAA AB{c}BA|G2Bc dega|bgaf ~g4||
ea{b}af ~g3a|ea{b}af ged2|ea{b}af (3gag af|(3efe de gdBd|
ea{b}af ~g3a|eaab c'bag|ea{b}af g2ag|(3efe de gdBd||

